!! 00000] TT[WS
!!!OTL: Fang yang
!!!ARE: Asia, China,ÿShanxi Dingxiang
!! Ethnic Group: Han
!! WI, 51 (1)
!!!SCT: J0053
!!!YEM: Copyright 1995, estate of Helmut Schaffrath.
**kern
*ICvox
*Ivox
*M2/4
*k[]
*C:
{8d
16d
16e
8e
8c
=1
8d
16e
16A
4G
=2
8A
16A
16c
8c
8G
=3
8A
16c
16E
4D}
=4
{8.G
16A
8G
16G
16A
=5
8G
8e
8d
8e
=6
8e
16d
16c
8c
16E
16G
=7
8.A
16c
16G
16A
16G
16E
=8
2D}
==
!!!AGN: Xiaodiao. Laodong, Fangyang
!!!ONB: ESAC (Essen Associative Code) Database: CHINA
!!!AMT: simple duple
!!!AIN: vox
!!!EED: Helmut Schaffrath
!!!EEV: 1.0
*-
